X:14
T:En passant par la Lorraine
T:En m'en revenant de Rennes
C:Paroles et musique : tradition du XVIe siècle
Z:Transcrit et/ou corrigé par Michel BELLON - 2006-04-28
Z:Pour toute observation mailto:galouvielle@free.fr
M:6/8
L:1/8
K:C
z3 C2C |: "C"G2G G2G | "F"A2F "C"G2G |1 "F"A2A "C"G3- | G2z C2C :|2 "F"A2A "C"G3- | G2z G2G |
"F"c2G G2F | "C"E2D E2E | E2G "G"G2F | "C"E2D C2E | "G"G3- G2z | "F"A2F "G7"D2B, | "C"C2z z3 |]

%%footer $D   Galouvielle-MBe 2006 \n-- (--)
